X: 30503
M: 2/4
L: 1/16
K: C
(c2ce) gage | gage gage | fafd egec | dedc cBAG |\
(c2ce) gage | gage gage | fafd egec | dfBd c2 :|
|:z2 |\
c'4- c'geg | .c'2.b2 .a2.g2 | fd'd'd' [ed]c'c'c' | dedc cBAG |\
c2eg ageg | afdf gece | fafd egec | dfBd c2 :|


